main/svg/beetroots0.svg

<svg xmlns="http://www.w3.org/2000/svg" width="32" height="32"><path d="M5 27.996V30l-2.004-2.004H1.004l4 4.004h2.004l3.988-4.004H9L7 30v-2.004Zm10 0V30l-2.004-2.004h-2L15.004 32h2l4-4.004h-2L17 30v-2.004Zm0 0" style="stroke:none;fill-rule:nonzero;fill:#000;fill-opacity:1"/><path d="M25 27.996V30l-2.004-2.004H21L25 32h2l4-4.004h-2.004L27 30v-2.004Zm0 0" style="stroke:none;fill-rule:nonzero;fill:#000;fill-opacity:1"/></svg>

<svg xmlns="http://www.w3.org/2000/svg" width="32" height="32"><path d="M5 28v2l-2-2H1l4 4h2l3.988-4H9l-2 2v-2Zm10 0v2l-2-2h-2l4 4h2l4-4h-2l-2 2v-2Zm10 0v2l-2-2h-2l4 4h2l4-4h-2l-2 2v-2Zm0 0" style="stroke:none;fill-rule:nonzero;fill:#000;fill-opacity:1"/></svg>
